X:1
T:My Father Knows, 87.85 D
T:George Frederick Root (1820-1895)
T:My Father Knows, 87.85 D
T:Public Domain
C:George Frederick Root (1820-1895)
Z:Public Domain
%%score ( 1 2 ) ( 3 4 )
L:1/8
M:3/4
K:C
V:1 treble 
V:2 treble 
V:3 bass 
V:4 bass 
V:1
 [CE]>[DF] | [EG]2 [Ec]2 [Ge]>[Fd] | [Ec]2 [EG]2 [CE]>[DF] | [EG]3 [CA] [CG][CE] | %4
 [B,D]4 [CE]>[DF] | [EG]2 [Gc]2 [Ee]>[Ed] | [Ec]2 [CG]2 [FA][Fd] | [Ec]4 [DB]2 | [Cc]4 [GB]>[^Fc] | %9
 [Gd]2 [Gd]2 [Ge]>[Gd] | [Gd]2 [DB]2 [GB]>[^Fc] | [Gd]2 [DG]2 [DB]>[CA] | (G2 F2) [CE]>[DF] | %13
 [EG]2 [Gc]2 [Ee]>[Ed] | [Ec]2 [CG]2 [FA][Fd] | [Ec]4 [DB]2 | [Cc]4 |] %17
V:2
 x2 | x6 | x6 | x6 | x6 | x6 | x6 | x6 | x6 | x6 | x6 | x6 | B,4 x2 | x6 | x6 | x6 | x4 |] %17
V:3
 [C,G,]>[C,G,] | [C,C]2 [C,G,]2 [G,,B,]>[G,,B,] | [C,C]2 [C,C]2 [C,G,]>[C,G,] | %3
 [C,G,]3 F, [E,G,][C,G,] | [G,,G,]4 [C,G,]>[C,G,] | [C,C]2 [E,C]2 [G,C]>[^G,B,] | %6
 [A,C]2 [E,C]2 [F,A,][D,A,] | G,4 [G,,F,]2 | [C,E,]4 G,>[G,A,] | [G,B,]2 [G,B,]2 [G,C]>[G,B,] | %10
 [G,B,]2 G,2 [G,D]>[A,C] | B,2 [B,,G,]2 [D,G,]>[D,^F,] | [G,,G,]4 [C,G,]>[C,G,] | %13
 [C,C]2 [E,C]2 [G,C]>[^G,B,] | [A,C]2 [E,C]2 [F,A,][D,A,] | G,4 [G,,F,]2 | [C,E,]4 |] %17
V:4
 x2 | x6 | x6 | x3 F, x2 | x6 | x6 | x6 | G,4 x2 | x4 G,3/2 x/ | x6 | x2 G,2 x2 | B,2 x4 | x6 | %13
 x6 | x6 | G,4 x2 | x4 |] %17

